X:1
T:Moving Day
M:4/4
L:1/8
K:G
 G2 A2 B2 c2| d^c d B- B4| cB c A- A4| BA B G- G4| G2 A2 B2 c2| d^c d B- B3 B|\
 cB cA-A F2 A| G2 z2 G2 z2| e2 ce-e ce c| e2 c e- e4| d2 Bd-d Bd B|\
 d2 B d- d4| c2 c2 cB cB| c2 c e- e2 f2| e2 d6| z2 D2 G2 B2| d6 e2|\
 B8| A6 c2| E8| F2 FFd-d B2| d2 B d- d4| e2 de-e-d Bd| e2 dB-B AG B|\
 d6 e2| B8| A A2 GA Bc d| e4 z2 EF| G2 EF G2 EF| GE GA BA Bc| d3- ^c- d3- c-|\
 d3 B G4|
